X:15
T:Francie McHugh's Jig
T:aka Shandon Bells
M:6/8
Q:3/8=120
R:jig
K:D
A|"D"DDD F2A|"D"d2 d dBA|"Em"B2 E E2A|"A"B2A Bcd|
"D"DDD F2A|"D"d2 d dBA | "G"Bcd edc|"D"d3 d2::
e|"D"f2 dd2d|"D"f2f agf|"A"e2A A2A|"A"e2e gfe|
"D"f2 dd2d|"D"f2f agf| "A"e2A cBA|"D"d3 d2:|
